src/assets/svg/icons/fa/nuevos/classic/light/input-pipe classic light.svg

<svg xmlns="http://www.w3.org/2000/svg" viewBox="0 0 640 512"><!--! Font Awesome Pro 6.4.0 by @fontawesome - https://fontawesome.com License - https://fontawesome.com/license (Commercial License) Copyright 2023 Fonticons, Inc. --><path d="M64 96c-17.7 0-32 14.3-32 32V384c0 17.7 14.3 32 32 32H576c17.7 0 32-14.3 32-32V128c0-17.7-14.3-32-32-32H64zM0 128C0 92.7 28.7 64 64 64H576c35.3 0 64 28.7 64 64V384c0 35.3-28.7 64-64 64H64c-35.3 0-64-28.7-64-64V128zm128 48V336c0 8.8-7.2 16-16 16s-16-7.2-16-16V176c0-8.8 7.2-16 16-16s16 7.2 16 16z"/></svg>

<svg xmlns="http://www.w3.org/2000/svg" viewBox="0 0 640 512"><path d="M128 336C128 344.8 120.8 352 112 352C103.2 352 96 344.8 96 336V176C96 167.2 103.2 160 112 160C120.8 160 128 167.2 128 176V336zM0 128C0 92.65 28.65 64 64 64H576C611.3 64 640 92.65 640 128V384C640 419.3 611.3 448 576 448H64C28.65 448 0 419.3 0 384V128zM32 128V384C32 401.7 46.33 416 64 416H576C593.7 416 608 401.7 608 384V128C608 110.3 593.7 96 576 96H64C46.33 96 32 110.3 32 128z"/></svg>
